public/images/poses-lg/UpwardBow.svg

<svg width="800" height="800" fill="none" xmlns="http://www.w3.org/2000/svg"><path d="M351.67 457.976c4.712-16.082 10.799-30.535 16.83-35.976 0 0-16.769 1.122-44.259 2.268-27.49 1.144-31.771-2.531-44.764 3.396-12.996 5.93-34.581 27.584-47.597 45.966-13.019 18.382-33.212 29.568-41.93 41.89-8.724 12.326-13.633 23.126-6.922 64.2 6.707 41.07-7.366 61.853-7.366 61.853l38.456 14.561s-2.129-29.287 14.561-45.978c16.691-16.691 27.818-17.838 41.236-34.202 13.418-16.363 26.365-54.873 49.534-66.833 0 0 9.593-6.11 21.922-5.516 0 0 4.017-24.19 10.299-45.629Z" fill="#fff" stroke="#000" stroke-width="5" stroke-miterlimit="10"/><path d="M351.67 457.976C356.382 441.895 359 434 365.5 422c0 0-13.769 1.122-41.259 2.268-27.49 1.144-31.771-2.531-44.764 3.397-12.996 5.929-34.581 27.583-47.597 45.965-13.019 18.383-33.212 29.568-41.93 41.89-8.724 12.326-13.633 23.126-6.922 64.2 6.707 41.07-7.366 61.853-7.366 61.853l38.456 14.562s-2.129-29.288 14.561-45.979c16.691-16.691 27.818-17.838 41.236-34.202 13.418-16.363 26.365-54.873 49.534-66.832 0 0 9.593-6.111 21.922-5.517 0 0 4.017-24.19 10.299-45.629Z" stroke="#000" stroke-width="5" stroke-miterlimit="10"/><path d="M201.514 635.576c7.557 5.724 7.161 14.742 12.705 23.57 8.802 14.028-3.099 36.727-20.48 43.079-22.949 8.391-58.575-71.154-46.196-78.135 7.331-4.136 24.129-3.702 39.814 4.65 5.045 2.691 14.157 6.836 14.157 6.836Z" fill="#fff" stroke="#000" stroke-width="5" stroke-miterlimit="10"/><path d="M201.514 635.576c7.557 5.724 7.161 14.742 12.705 23.57 8.802 14.028-3.099 36.727-20.48 43.079-22.949 8.391-58.575-71.154-46.196-78.135 7.331-4.136 24.129-3.702 39.814 4.65 5.045 2.691 14.157 6.836 14.157 6.836Z" stroke="#000" stroke-width="5" stroke-miterlimit="10"/><path d="M398.206 785.241c-17.829 4.707-59.36 3.912-94.909 3.272-31.046-.556-60.873.924-77.08-7.289-37.485-18.992-48.1-74.385-49.175-98.9-.434-4.945-.271-10.133.729-14.881.011-.064 0-.136.029-.194l.03-.059c1.897-8.706 6.633-15.88 15.735-17.265 22.044-3.361 8.858-11.725 5.696-14.789-3.163-3.063-2.429-4.088-.91-6 1.518-1.91 19.815-5.438 31.228 13.65a90.99 90.99 0 0 1 1.805 3.171c.483.89 1.293 1.519 2.265 1.813 8.831 2.682 22.275 4.057 31.577 25.875 28.525 66.913 49.795 63.691 68.071 57.599 58.861-19.614 70.739 34.536 72.023 42.073.974 5.718.042 10.034-7.114 11.924Z" fill="#100200" stroke="#000" stroke-width="5" stroke-miterlimit="10"/><path d="M351.68 457.948c8.131-22.46 10.82-32.948 18.82-36.448 0 0 23.5-3 60.214 23.984 42.651 27.872 132.108 80.792 156.324 116.185 0 0 2.761 1.245 3.005 10.575.24 9.332-2.969 61.147-8.062 101.222-5.095 40.069-5.414 65.194-.618 78.065 4.801 12.873 45.699 23.402 53.799 24.982 8.101 1.581 19.227 4.189 20.536 6.095 1.31 1.902-1.846 7.399-5.471 8.781-3.626 1.378-80.751 1.17-88.06.568-7.313-.607-16.96-5.994-15.029-21.682 1.939-15.687 1.284-29.65.408-46.013-.873-16.364-13.252-63.436-12.241-89.902 1.006-26.465 3.953-45.807 3.953-45.807S496.235 582.481 458.92 564c-37.319-18.481-30.277-20.812-66.603-19.973-36.326.837-40.34-32.277-44.39-37.238 0 0-3.179-3.183-6.559-3.183 0 0 6.778-35.9 10.312-45.658Z" fill="#fff" stroke="#000" stroke-width="5" stroke-miterlimit="10"/><path d="M546.129 712.892s18.489 2.64 32.826-2.424Z" fill="#fff"/><path d="M546.129 712.892s18.489 2.64 32.826-2.424" stroke="#000" stroke-width="5" stroke-miterlimit="10"/><path d="M546.129 712.892s18.489 2.64 32.826-2.424M184.532 592.499c15.088 2.941 33.348 24.854 33.348 24.854" stroke="#000" stroke-width="5" stroke-miterlimit="10"/><path d="m254.742 590.017-11.796 55.322 2.254 121.006a9.002 9.002 0 0 0 6.85 8.054c11.761 2.868 40.039 4.87 53.847 11.965 3.156 1.618 1.969 4.945-1.578 4.984l-64.422-.821a14.973 14.973 0 0 1-14.431-12.39c-5.103-29.224-14.803-103.329-18.659-125.544-4.853-27.948-1.654-75.958-1.654-75.958" fill="#fff"/><path d="m254.742 590.017-11.796 55.322 2.254 121.006a9.002 9.002 0 0 0 6.85 8.054c11.761 2.868 40.039 4.87 53.847 11.965 3.156 1.618 1.969 4.945-1.578 4.984l-64.422-.821a14.973 14.973 0 0 1-14.431-12.39c-5.103-29.224-14.803-103.329-18.659-125.544-4.853-27.948-1.654-75.958-1.654-75.958" stroke="#000" stroke-width="5" stroke-miterlimit="10"/><path d="m254.742 590.017-11.796 55.322 2.254 121.006a9.002 9.002 0 0 0 6.85 8.054c11.761 2.868 40.039 4.87 53.847 11.965 3.156 1.618 1.969 4.945-1.578 4.984l-64.422-.821a14.973 14.973 0 0 1-14.431-12.39c-5.103-29.224-14.803-103.329-18.659-125.544-4.853-27.948-1.654-75.958-1.654-75.958" stroke="#000" stroke-width="5" stroke-miterlimit="10"/><path d="M225.468 778.135c2.72-3.04 14.619-8.784 21.021-7.793Z" fill="#fff"/><path d="M225.468 778.135c2.72-3.04 14.619-8.784 21.021-7.793" stroke="#000" stroke-width="5" stroke-miterlimit="10"/><path d="M225.468 778.135c2.72-3.04 14.619-8.784 21.021-7.793" stroke="#000" stroke-width="5" stroke-miterlimit="10"/></svg>

<svg width="800" height="800" viewBox="0 0 800 800" fill="none" xmlns="http://www.w3.org/2000/svg">
<path d="M351.67 457.976C356.382 441.894 362.469 427.441 368.5 422C368.5 422 351.731 423.122 324.241 424.268C296.751 425.412 292.47 421.737 279.477 427.664C266.481 433.594 244.896 455.248 231.88 473.63C218.861 492.012 198.668 503.198 189.95 515.52C181.226 527.846 176.317 538.646 183.028 579.72C189.735 620.79 175.662 641.573 175.662 641.573L214.118 656.134C214.118 656.134 211.989 626.847 228.679 610.156C245.37 593.465 256.497 592.318 269.915 575.954C283.333 559.591 296.28 521.081 319.449 509.121C319.449 509.121 329.042 503.011 341.371 503.605C341.371 503.605 345.388 479.415 351.67 457.976Z" fill="white" stroke="black" stroke-width="5" stroke-miterlimit="10"/>
<path d="M351.67 457.976C356.382 441.895 359 434 365.5 422C365.5 422 351.731 423.122 324.241 424.268C296.751 425.412 292.47 421.737 279.477 427.665C266.481 433.594 244.896 455.248 231.88 473.63C218.861 492.013 198.668 503.198 189.95 515.52C181.226 527.846 176.317 538.646 183.028 579.72C189.735 620.79 175.662 641.573 175.662 641.573L214.118 656.135C214.118 656.135 211.989 626.847 228.679 610.156C245.37 593.465 256.497 592.318 269.915 575.954C283.333 559.591 296.28 521.081 319.449 509.122C319.449 509.122 329.042 503.011 341.371 503.605C341.371 503.605 345.388 479.415 351.67 457.976Z" stroke="black" stroke-width="5" stroke-miterlimit="10"/>
<path d="M201.514 635.576C209.071 641.3 208.675 650.318 214.219 659.146C223.021 673.174 211.12 695.873 193.739 702.225C170.79 710.616 135.164 631.071 147.543 624.09C154.874 619.954 171.672 620.388 187.357 628.74C192.402 631.431 201.514 635.576 201.514 635.576Z" fill="white" stroke="black" stroke-width="5" stroke-miterlimit="10"/>
<path d="M201.514 635.576C209.071 641.3 208.675 650.318 214.219 659.146C223.021 673.174 211.12 695.873 193.739 702.225C170.79 710.616 135.164 631.071 147.543 624.09C154.874 619.954 171.672 620.388 187.357 628.74C192.402 631.431 201.514 635.576 201.514 635.576Z" stroke="black" stroke-width="5" stroke-miterlimit="10"/>
<path d="M398.206 785.241C380.377 789.948 338.846 789.153 303.297 788.513C272.251 787.957 242.424 789.437 226.217 781.224C188.732 762.232 178.117 706.839 177.042 682.324C176.608 677.379 176.771 672.191 177.771 667.443C177.782 667.379 177.771 667.307 177.8 667.249C177.81 667.229 177.82 667.208 177.83 667.19C179.727 658.484 184.463 651.31 193.565 649.925C215.609 646.564 202.423 638.2 199.261 635.136C196.098 632.073 196.832 631.048 198.351 629.136C199.869 627.226 218.166 623.698 229.579 642.786C230.226 643.87 230.821 644.922 231.384 645.957C231.867 646.847 232.677 647.476 233.649 647.77C242.48 650.452 255.924 651.827 265.226 673.645C293.751 740.558 315.021 737.336 333.297 731.244C392.158 711.63 404.036 765.78 405.32 773.317C406.294 779.035 405.362 783.351 398.206 785.241Z" fill="#100200" stroke="black" stroke-width="5" stroke-miterlimit="10"/>
<path d="M351.68 457.948C359.811 435.488 362.5 425 370.5 421.5C370.5 421.5 394 418.5 430.714 445.484C473.365 473.356 562.822 526.276 587.038 561.669C587.038 561.669 589.799 562.914 590.043 572.244C590.283 581.576 587.074 633.391 581.981 673.466C576.886 713.535 576.567 738.66 581.363 751.531C586.164 764.404 627.062 774.933 635.162 776.513C643.263 778.094 654.389 780.702 655.698 782.608C657.008 784.51 653.852 790.007 650.227 791.389C646.601 792.767 569.476 792.559 562.167 791.957C554.854 791.35 545.207 785.963 547.138 770.275C549.077 754.588 548.422 740.625 547.546 724.262C546.673 707.898 534.294 660.826 535.305 634.36C536.311 607.895 539.258 588.553 539.258 588.553C539.258 588.553 496.235 582.481 458.92 564C421.601 545.519 428.643 543.188 392.317 544.027C355.991 544.864 351.977 511.75 347.927 506.789C347.927 506.789 344.748 503.606 341.368 503.606C341.368 503.606 348.146 467.706 351.68 457.948Z" fill="white" stroke="black" stroke-width="5" stroke-miterlimit="10"/>
<path d="M546.129 712.892C546.129 712.892 564.618 715.532 578.955 710.468Z" fill="white"/>
<path d="M546.129 712.892C546.129 712.892 564.618 715.532 578.955 710.468" stroke="black" stroke-width="5" stroke-miterlimit="10"/>
<path d="M546.129 712.892C546.129 712.892 564.618 715.532 578.955 710.468" stroke="black" stroke-width="5" stroke-miterlimit="10"/>
<path d="M184.532 592.499C199.62 595.44 217.88 617.353 217.88 617.353" stroke="black" stroke-width="5" stroke-miterlimit="10"/>
<path d="M254.742 590.017L242.946 645.339L245.2 766.345C245.497 770.228 248.264 773.476 252.05 774.399C263.811 777.267 292.089 779.269 305.897 786.364C309.053 787.982 307.866 791.309 304.319 791.348L239.897 790.527C232.74 790.368 226.699 785.188 225.466 778.137C220.363 748.913 210.663 674.808 206.807 652.593C201.954 624.645 205.153 576.635 205.153 576.635" fill="white"/>
<path d="M254.742 590.017L242.946 645.339L245.2 766.345C245.497 770.228 248.264 773.476 252.05 774.399C263.811 777.267 292.089 779.269 305.897 786.364C309.053 787.982 307.866 791.309 304.319 791.348L239.897 790.527C232.74 790.368 226.699 785.188 225.466 778.137C220.363 748.913 210.663 674.808 206.807 652.593C201.954 624.645 205.153 576.635 205.153 576.635" stroke="black" stroke-width="5" stroke-miterlimit="10"/>
<path d="M254.742 590.017L242.946 645.339L245.2 766.345C245.497 770.228 248.264 773.476 252.05 774.399C263.811 777.267 292.089 779.269 305.897 786.364C309.053 787.982 307.866 791.309 304.319 791.348L239.897 790.527C232.74 790.368 226.699 785.188 225.466 778.137C220.363 748.913 210.663 674.808 206.807 652.593C201.954 624.645 205.153 576.635 205.153 576.635" stroke="black" stroke-width="5" stroke-miterlimit="10"/>
<path d="M225.468 778.135C228.188 775.095 240.087 769.351 246.489 770.342Z" fill="white"/>
<path d="M225.468 778.135C228.188 775.095 240.087 769.351 246.489 770.342" stroke="black" stroke-width="5" stroke-miterlimit="10"/>
<path d="M225.468 778.135C228.188 775.095 240.087 769.351 246.489 770.342" stroke="black" stroke-width="5" stroke-miterlimit="10"/>
</svg>
